X:2361
T:Yn Scollag Aeg 
C:Mrs Shimmin, Foxdale 
C:Traditional
O:Isle of Man
N:Minor version of KV 9 Barbara Allen.
N:See also KV3,28,127.
Z:Kiaull Vannin 361 
M:3/4 
L:1/8 
Q:140 
K:G 
E G F|G3 G B A|F E2 E A G|A2A B c B|B3 E G A|B2e B A G|GF2 G/A/ B e|B2A G F F|E3|| 

